images_elementary_svg/cmd/sc_distributecolumns.svg

<svg viewBox="0 0 16 16" xmlns="http://www.w3.org/2000/svg" xmlns:xlink="http://www.w3.org/1999/xlink"><linearGradient id="a" gradientTransform="matrix(1.38317 0 0 1.41442 -36.243 -3.873)" gradientUnits="userSpaceOnUse" x1="8.295" x2="8.295" y1="-4.284" y2="16.85"><stop offset="0" stop-color="#cdf87e"/><stop offset=".262" stop-color="#a2e34f"/><stop offset=".661" stop-color="#68b723"/><stop offset="1" stop-color="#1d7e0d"/></linearGradient><linearGradient id="b"><stop offset="0" stop-color="#fff"/><stop offset=".5" stop-color="#fff" stop-opacity=".235"/><stop offset=".951" stop-color="#fff" stop-opacity=".157"/><stop offset="1" stop-color="#fff" stop-opacity=".392"/></linearGradient><linearGradient id="c" gradientTransform="matrix(.98704 0 0 .88413 .093 -1.35)" gradientUnits="userSpaceOnUse" x1="7" x2="7" xlink:href="#b" y1="2" y2="9"/><linearGradient id="d" gradientTransform="matrix(.94103 0 0 1.027 .46 -2.56)" gradientUnits="userSpaceOnUse" x1="7" x2="7" xlink:href="#a" y1="-4" y2="17"/><linearGradient id="e" gradientTransform="matrix(.59436 0 0 .5999 -19.265 -.033)" gradientUnits="userSpaceOnUse" x1="25.132" x2="25.132" y1="15.5" y2="48.396"><stop offset="0" stop-color="#fafafa"/><stop offset="1" stop-color="#e2e1de"/></linearGradient><linearGradient id="f" gradientTransform="matrix(.94103 0 0 1.027 -4.54 -2.56)" gradientUnits="userSpaceOnUse" x1="7" x2="7" xlink:href="#a" y1="-4" y2="17"/><linearGradient id="g" gradientTransform="matrix(.98704 0 0 .88413 -4.907 -1.35)" gradientUnits="userSpaceOnUse" x1="7" x2="7" xlink:href="#b" y1="2" y2="9"/><linearGradient id="h" gradientTransform="matrix(-.34745 0 0 -.37307 21.79 32.638)" gradientUnits="userSpaceOnUse" x1="39.651" x2="23.715" y1="57.957" y2="58.393"><stop offset="0" stop-color="#fff"/><stop offset=".21" stop-color="#fff" stop-opacity=".235"/><stop offset=".859" stop-color="#fff" stop-opacity=".157"/><stop offset="1" stop-color="#fff" stop-opacity=".392"/></linearGradient><g transform="translate(1 2)"><rect fill="url(#e)" height="14" rx=".424" ry=".491" width="4" x="6" y="-1"/><path d="m5.502-1.998c-.276 0-.5.224-.5.5l.002 14.998c0 .276.224.5.5.5h4.996c.276 0 .5-.224.5-.5l-.002-10.5h.002v-1h-.002v-3.498c0-.276-.224-.5-.5-.5zm.498.998h4v3h-4zm0 4h4v2h-3.996v1h3.996v3h-3.996v1h3.996l.002 3.002h-4z" opacity=".32"/></g><path d="m6.502.002c-.276 0-.51.224-.5.5v3.5h.998v-3.002h4v3.002h.998v-3.5c0-.276-.224-.5-.5-.5zm.5 3v1zm3.996 0v1z" fill="#126400" opacity=".4"/><path d="m6.01.992 3.99.008v2.602l-3.99-.008z" fill="url(#d)" transform="translate(1)"/><path d="m5.5.52v3.082l.51-.008-.01-2.594h4v2.602h.518v-3.08z" fill="url(#c)" transform="translate(1)"/><path d="m6 3.632h5.998v.368h-5.998z" fill="#0c4400" fill-opacity=".592" opacity=".32"/><g transform="translate(-5 2)"><rect fill="url(#e)" height="14" rx=".424" ry=".491" width="4" x="6" y="-1"/><path d="m5.502-1.998c-.276 0-.5.224-.5.5l.002 14.998c0 .276.224.5.5.5h4.496v-.998h-3.998l-.002-10.002h4v-1h-4v-3h4v-.998zm.502 6.998v1h3.996v-1zm0 4v1h3.996v-1z" opacity=".32"/></g><path d="m.502.002c-.276 0-.51.224-.5.5v3.5h.998v-3.002h4v-.998zm.5 3v1z" fill="#126400" opacity=".4"/><path d="m1.01.992 3.99.008v2.602l-3.99-.008z" fill="url(#f)"/><path d="m.5.52v3.082l.51-.008-.01-2.594h4v-.48z" fill="url(#g)"/><path d="m0 3.632h5v.368h-5z" fill="#0c4400" fill-opacity=".592" opacity=".32"/><g stroke-miterlimit="7"><path d="m10.516 14.902 4.987-3.974-5.003-3.8v2.358l-4-.01.016 3.01 4 .01z" display="block" fill="#46a9eb" fill-opacity=".984" stroke="#2f78c8" stroke-linejoin="round"/><path d="m13.55 10.853-2.61-3.328-2.46 3.344h1.665l-.01 4 1.716-.018.01-4z" display="block" fill="none" stroke="url(#h)" stroke-width=".623" transform="matrix(0 1 -1 0 22.016 -.012)"/></g></svg>

<svg xmlns="http://www.w3.org/2000/svg" xmlns:xlink="http://www.w3.org/1999/xlink" viewBox="0 0 16 16"><defs><linearGradient gradientTransform="matrix(1.38317 0 0 1.41442 -36.243 -3.873)" id="b" gradientUnits="userSpaceOnUse" x1="8.295" x2="8.295" y1="-4.284" y2="16.85"><stop offset="0" stop-color="#cdf87e"/><stop offset=".262" stop-color="#a2e34f"/><stop offset=".661" stop-color="#68b723"/><stop offset="1" stop-color="#1d7e0d"/></linearGradient><linearGradient id="c" gradientTransform="matrix(.59436 0 0 .5999 -19.265 -.033)" gradientUnits="userSpaceOnUse" x1="25.132" x2="25.132" y1="15.5" y2="48.396"><stop offset="0" stop-color="#fafafa"/><stop offset="1" stop-color="#e2e1de"/></linearGradient><linearGradient id="a"><stop offset="0" stop-color="#fff"/><stop offset=".5" stop-color="#fff" stop-opacity=".235"/><stop offset=".951" stop-color="#fff" stop-opacity=".157"/><stop offset="1" stop-color="#fff" stop-opacity=".392"/></linearGradient><linearGradient xlink:href="#a" id="f" x1="7" y1="2" x2="7" y2="9" gradientUnits="userSpaceOnUse" gradientTransform="matrix(.98704 0 0 .88413 .093 -1.35)"/><linearGradient xlink:href="#b" id="e" x1="7" y1="-4" x2="7" y2="17" gradientUnits="userSpaceOnUse" gradientTransform="matrix(.94103 0 0 1.027 .46 -2.56)"/><linearGradient xlink:href="#c" id="g" gradientUnits="userSpaceOnUse" gradientTransform="matrix(.59436 0 0 .5999 -19.265 -.033)" x1="25.132" y1="15.5" x2="25.132" y2="48.396"/><linearGradient xlink:href="#b" id="h" gradientUnits="userSpaceOnUse" gradientTransform="matrix(.94103 0 0 1.027 -4.54 -2.56)" x1="7" y1="-4" x2="7" y2="17"/><linearGradient xlink:href="#a" id="i" gradientUnits="userSpaceOnUse" gradientTransform="matrix(.98704 0 0 .88413 -4.907 -1.35)" x1="7" y1="2" x2="7" y2="9"/><linearGradient xlink:href="#c" id="d" gradientUnits="userSpaceOnUse" gradientTransform="matrix(.59436 0 0 .5999 -19.265 -.033)" x1="25.132" y1="15.5" x2="25.132" y2="48.396"/><linearGradient id="j" gradientTransform="matrix(-.34745 0 0 -.37307 21.79 32.638)" gradientUnits="userSpaceOnUse" x1="39.651" x2="23.715" y1="57.957" y2="58.393"><stop offset="0" stop-color="#fff"/><stop offset=".21" stop-color="#fff" stop-opacity=".235"/><stop offset=".859" stop-color="#fff" stop-opacity=".157"/><stop offset="1" stop-color="#fff" stop-opacity=".392"/></linearGradient></defs><g transform="translate(1 2)"><rect y="-1" x="6" width="4" ry=".491" rx=".424" height="14" fill="url(#d)"/><path d="M5.502-1.998c-.276 0-.5.224-.5.5L5.004 13.5c0 .276.224.5.5.5H10.5c.276 0 .5-.224.5-.5L10.998 3H11V2h-.002v-3.498c0-.276-.224-.5-.5-.5zM6-1h4v3H6zm0 4h4v2H6.004v1H10v3H6.004v1H10l.002 3.002h-4z" opacity=".32"/></g><path d="M6.502.002c-.276 0-.51.224-.5.5v3.5H7V1h4v3.002h.998v-3.5c0-.276-.224-.5-.5-.5zm.5 3v1zm3.996 0v1z" opacity=".4" fill="#126400"/><path d="M6.01.992L10 1v2.602l-3.99-.008z" fill="url(#e)" transform="translate(1)"/><path d="M5.5.52v3.082l.51-.008L6 1h4v2.602h.518V.522z" fill="url(#f)" transform="translate(1)"/><path d="M6 3.632h5.998V4H6z" opacity=".32" fill="#0c4400" fill-opacity=".592"/><g transform="translate(-5 2)"><rect y="-1" x="6" width="4" ry=".491" rx=".424" height="14" fill="url(#g)"/><path d="M5.502-1.998c-.276 0-.5.224-.5.5L5.004 13.5c0 .276.224.5.5.5H10v-.998H6.002L6 3h4V2H6v-3h4v-.998H5.502zM6.004 5v1H10V5H6.004zm0 4v1H10V9H6.004z" opacity=".32"/></g><path d="M.502.002c-.276 0-.51.224-.5.5v3.5H1V1h4V.002H.502zm.5 3v1-1z" opacity=".4" fill="#126400"/><path d="M1.01.992L5 1v2.602l-3.99-.008z" fill="url(#h)"/><path d="M.5.52v3.082l.51-.008L1 1h4V.52H.5z" fill="url(#i)"/><path d="M0 3.632h5V4H0z" opacity=".32" fill="#0c4400" fill-opacity=".592"/><g stroke-miterlimit="7"><path d="M10.516 14.902l4.987-3.974-5.003-3.8v2.358l-4-.01.016 3.01 4 .01z" display="block" fill="#46a9eb" fill-opacity=".984" stroke="#2f78c8" stroke-linejoin="round"/><path display="block" d="M13.55 10.853l-2.61-3.328-2.46 3.344h1.665l-.01 4 1.716-.018.01-4z" transform="rotate(90 11.014 11.002)" fill="none" stroke="url(#j)" stroke-width=".623"/></g></svg>
